X: 33
T:Tout en Allent
M:2/4
L:1/8
R:Bourree
Z:Steve Mansfield
K:C
g3 a | _bage | e4 | gecd | d4 | g3 a | _bage | e4 |
fdBc | c4 :: edcB | Bc d2 | fdfe | egc2 | edcB | Bcd2 | fdBc | c4 :|

